localPackages/DesignSystem/Sources/DesignSystem/Resources/Assets.xcassets/IconSet/ic-moon.imageset/ic-moon.svg

<svg width="24" height="24" viewBox="0 0 24 24" fill="none" xmlns="http://www.w3.org/2000/svg">
<g id="ic-moon">
<path id="Icon" fill-rule="evenodd" clip-rule="evenodd" d="M13.6123 3C8.58859 3 4.51605 7.02944 4.51605 12C4.51605 16.9706 8.58859 21 13.6123 21C14.9421 21 16.2048 20.718 17.3431 20.2109C13.1216 19.8045 9.82222 16.2835 9.82222 12C9.82222 7.71653 13.1216 4.19553 17.3431 3.78914C16.2048 3.28202 14.9421 3 13.6123 3ZM3 12C3 6.20101 7.7513 1.5 13.6123 1.5C16.3612 1.5 18.8675 2.53508 20.7521 4.23154C21.0124 4.4659 21.0755 4.84676 20.9043 5.15105C20.7331 5.45534 20.3727 5.60301 20.0342 5.50758C19.4397 5.33998 18.8114 5.25 18.1605 5.25C14.3927 5.25 11.3383 8.27208 11.3383 12C11.3383 15.7279 14.3927 18.75 18.1605 18.75C18.8114 18.75 19.4397 18.66 20.0342 18.4924C20.3727 18.397 20.7331 18.5447 20.9043 18.8489C21.0755 19.1532 21.0124 19.5341 20.7521 19.7685C18.8676 21.4649 16.3612 22.5 13.6123 22.5C7.7513 22.5 3 17.799 3 12Z" fill="#0F0F0F"/>
</g>
</svg>

<svg xmlns="http://www.w3.org/2000/svg" width="24" height="24" viewBox="0 0 24 24">
  <g class="ic-moon">
    <path fill-rule="evenodd" d="M13.612 3C8.59 3 4.516 7.03 4.516 12s4.073 9 9.096 9a9.13 9.13 0 0 0 3.731-.79c-4.221-.405-7.52-3.927-7.52-8.21 0-4.283 3.299-7.804 7.52-8.21a9.145 9.145 0 0 0-3.73-.79ZM3 12C3 6.201 7.751 1.5 13.612 1.5a10.64 10.64 0 0 1 7.14 2.732c.26.234.324.615.152.919a.761.761 0 0 1-.87.357 6.895 6.895 0 0 0-1.873-.258c-3.768 0-6.823 3.022-6.823 6.75s3.055 6.75 6.822 6.75c.651 0 1.28-.09 1.874-.258a.762.762 0 0 1 .87.357.744.744 0 0 1-.152.92 10.64 10.64 0 0 1-7.14 2.731C7.752 22.5 3 17.799 3 12Z" class="Icon"/>
  </g>
</svg>
